X:1
T:Title
%%score { ( 1 5 ) | ( 2 3 4 ) }
L:1/8
Q:1/4=100
M:6/8
K:C
V:1 treble nm="Grand Piano"
V:5 treble 
V:2 bass 
V:3 bass 
V:4 bass 
V:1
 c>Bc c>Bc | [^Gd][Ge][Gd] [Ac]3 | AGF FEF | [EG]cG [Ec]Gc | c>Bc c>Bc | [^Gd][Ge][Gd] [Ac]3 | %6
w: Adam~Geibel * * * * *||||||
 Gcc BAB | [CEc]6 | _BGE z _B,B, | z3 c3 | [Fd][Fd][Fd] [Ge][GA][Ge] | [Fd]3 [_Be]3 | %12
w: ||||||
 [Af][^Ge][Gd] [Ac]3 | [^Fc]_BA d3 | [DF][DE][^CF] [=Cc][EA][EG] | F6 |] %16
w: ||||
V:2
 [F,A,F]>[F,^G,F][F,A,F] [F,A,F]>[F,G,F][F,A,F] | [F,B,][F,B,][F,B,] [F,C]3 | %2
 [F,CF][F,_B,C][F,A,C] [F,A,C][G,B,C][F,A,C] | C-[C-E][CE] z[K:treble] EE | %4
 [F,A,F]>[F,^G,F][F,A,F][K:bass] [F,A,F]>[F,G,F][F,A,F] | [F,B,][F,B,][F,B,] [F,C]3 | %6
 [G,CE][G,EG][G,EG] [G,DF][G,CF][DF] | C,6 | C,,[C,E,_B,][C,E,B,] C,,[C,E,][C,E,] | %9
 F,,[C,F,A,][C,F,A,] F,,[C,F,][C,F,] | [D,A,][D,A,][D,A,] [A,,A,][A,,A,][A,,A,] | [D,A,]3 [C,C]3 | %12
 [F,C][F,B,][F,B,] [F,C]3 | [D,D][K:treble][D^F][CDF] [_B,DG]3 | %14
 [_B,,_B,][B,,B,][B,,B,] [C,A,][C,C][C,B,] | A,A,_B, .A,3 |] %16
V:3
 x6 | x6 | x6 | z3 ._B,3[K:treble] | x3[K:bass] x3 | x6 | x6 | x6 | x6 | x6 | x6 | x6 | x6 | %13
 x[K:treble] x5 | x6 | F,6 |] %16
V:4
 x6 | x6 | x6 | C,6[K:treble] | x3[K:bass] x3 | x6 | x6 | x6 | x6 | x6 | x6 | x6 | x6 | %13
 x[K:treble] x5 | x6 | x6 |] %16
V:5
 x6 | x6 | x6 | x6 | x6 | x6 | x6 | x6 | z3 D3 | CFA z A,A, | x6 | x6 | x6 | x6 | x6 | z CD .C3 |] %16

